img/icons/this/footer/instagram.svg

<svg width="40" height="40" viewBox="0 0 40 40" fill="none" xmlns="http://www.w3.org/2000/svg">
<path d="M20 0C14.5725 0 13.89 0.025 11.7575 0.12C9.625 0.22 8.1725 0.555 6.9 1.05C5.56523 1.55205 4.35623 2.33957 3.3575 3.3575C2.34019 4.35674 1.55277 5.5656 1.05 6.9C0.555 8.17 0.2175 9.625 0.12 11.75C0.025 13.8875 0 14.5675 0 20.0025C0 25.4325 0.025 26.1125 0.12 28.245C0.22 30.375 0.555 31.8275 1.05 33.1C1.5625 34.415 2.245 35.53 3.3575 36.6425C4.4675 37.755 5.5825 38.44 6.8975 38.95C8.1725 39.445 9.6225 39.7825 11.7525 39.88C13.8875 39.975 14.5675 40 20 40C25.4325 40 26.11 39.975 28.245 39.88C30.3725 39.78 31.83 39.445 33.1025 38.95C34.4364 38.4477 35.6445 37.6602 36.6425 36.6425C37.755 35.53 38.4375 34.415 38.95 33.1C39.4425 31.8275 39.78 30.375 39.88 28.245C39.975 26.1125 40 25.4325 40 20C40 14.5675 39.975 13.8875 39.88 11.7525C39.78 9.625 39.4425 8.17 38.95 6.9C38.4473 5.56556 37.6599 4.35669 36.6425 3.3575C35.6441 2.33919 34.435 1.55161 33.1 1.05C31.825 0.555 30.37 0.2175 28.2425 0.12C26.1075 0.025 25.43 0 19.995 0H20.0025H20ZM18.2075 3.605H20.0025C25.3425 3.605 25.975 3.6225 28.0825 3.72C30.0325 3.8075 31.0925 4.135 31.7975 4.4075C32.73 4.77 33.3975 5.205 34.0975 5.905C34.7975 6.605 35.23 7.27 35.5925 8.205C35.8675 8.9075 36.1925 9.9675 36.28 11.9175C36.3775 14.025 36.3975 14.6575 36.3975 19.995C36.3975 25.3325 36.3775 25.9675 36.28 28.075C36.1925 30.025 35.865 31.0825 35.5925 31.7875C35.2719 32.6559 34.7601 33.4411 34.095 34.085C33.395 34.785 32.73 35.2175 31.795 35.58C31.095 35.855 30.035 36.18 28.0825 36.27C25.975 36.365 25.3425 36.3875 20.0025 36.3875C14.6625 36.3875 14.0275 36.365 11.92 36.27C9.97 36.18 8.9125 35.855 8.2075 35.58C7.33875 35.2598 6.55281 34.7489 5.9075 34.085C5.24188 33.4401 4.72931 32.6541 4.4075 31.785C4.135 31.0825 3.8075 30.0225 3.72 28.0725C3.625 25.965 3.605 25.3325 3.605 19.99C3.605 14.65 3.625 14.02 3.72 11.9125C3.81 9.9625 4.135 8.9025 4.41 8.1975C4.7725 7.265 5.2075 6.5975 5.9075 5.8975C6.6075 5.1975 7.2725 4.765 8.2075 4.4025C8.9125 4.1275 9.97 3.8025 11.92 3.7125C13.765 3.6275 14.48 3.6025 18.2075 3.6V3.605ZM30.6775 6.925C30.3623 6.925 30.0502 6.98708 29.7591 7.10769C29.4679 7.2283 29.2033 7.40508 28.9804 7.62794C28.7576 7.8508 28.5808 8.11538 28.4602 8.40656C28.3396 8.69774 28.2775 9.00983 28.2775 9.325C28.2775 9.64017 28.3396 9.95226 28.4602 10.2434C28.5808 10.5346 28.7576 10.7992 28.9804 11.0221C29.2033 11.2449 29.4679 11.4217 29.7591 11.5423C30.0502 11.6629 30.3623 11.725 30.6775 11.725C31.314 11.725 31.9245 11.4721 32.3746 11.0221C32.8246 10.572 33.0775 9.96152 33.0775 9.325C33.0775 8.68848 32.8246 8.07803 32.3746 7.62794C31.9245 7.17786 31.314 6.925 30.6775 6.925ZM20.0025 9.73C18.6402 9.70875 17.2872 9.95871 16.0224 10.4654C14.7577 10.972 13.6063 11.7252 12.6354 12.6811C11.6645 13.6369 10.8934 14.7764 10.3671 16.0331C9.8408 17.2899 9.56975 18.6388 9.56975 20.0012C9.56975 21.3637 9.8408 22.7126 10.3671 23.9693C10.8934 25.2261 11.6645 26.3656 12.6354 27.3214C13.6063 28.2773 14.7577 29.0305 16.0224 29.5371C17.2872 30.0438 18.6402 30.2938 20.0025 30.2725C22.6989 30.2304 25.2705 29.1298 27.1624 27.2081C29.0544 25.2865 30.1148 22.6979 30.1147 20.0012C30.1148 17.3046 29.0544 14.716 27.1624 12.7944C25.2705 10.8727 22.6989 9.77207 20.0025 9.73ZM20.0025 13.3325C21.7708 13.3325 23.4667 14.035 24.7171 15.2854C25.9675 16.5358 26.67 18.2317 26.67 20C26.67 21.7683 25.9675 23.4642 24.7171 24.7146C23.4667 25.965 21.7708 26.6675 20.0025 26.6675C18.2342 26.6675 16.5383 25.965 15.2879 24.7146C14.0375 23.4642 13.335 21.7683 13.335 20C13.335 18.2317 14.0375 16.5358 15.2879 15.2854C16.5383 14.035 18.2342 13.3325 20.0025 13.3325Z" fill="white"/>
</svg>

<svg width="40" height="40" fill="none" xmlns="http://www.w3.org/2000/svg"><path d="M20 0c-5.428 0-6.11.025-8.242.12-2.133.1-3.585.435-4.858.93a9.793 9.793 0 00-3.543 2.308A9.818 9.818 0 001.05 6.9C.555 8.17.217 9.625.12 11.75.025 13.887 0 14.568 0 20.003c0 5.43.025 6.11.12 8.242.1 2.13.435 3.582.93 4.855a9.823 9.823 0 002.308 3.542 9.76 9.76 0 003.54 2.308c1.274.495 2.725.832 4.854.93 2.135.095 2.816.12 8.248.12 5.433 0 6.11-.025 8.245-.12 2.127-.1 3.585-.435 4.857-.93a9.79 9.79 0 003.54-2.308A9.823 9.823 0 0038.95 33.1c.492-1.273.83-2.725.93-4.855.095-2.133.12-2.813.12-8.245 0-5.432-.025-6.113-.12-8.248-.1-2.127-.438-3.582-.93-4.852a9.815 9.815 0 00-2.308-3.543A9.777 9.777 0 0033.1 1.05C31.825.555 30.37.217 28.242.12 26.108.025 25.43 0 19.995 0h.008H20zm-1.793 3.605h1.796c5.34 0 5.972.018 8.08.115 1.95.087 3.01.415 3.715.687.932.363 1.6.798 2.3 1.498.7.7 1.132 1.365 1.495 2.3.274.703.6 1.762.687 3.713.097 2.107.117 2.74.117 8.077s-.02 5.973-.117 8.08c-.087 1.95-.415 3.008-.688 3.713a6.174 6.174 0 01-1.497 2.297c-.7.7-1.365 1.133-2.3 1.495-.7.275-1.76.6-3.713.69-2.107.095-2.74.117-8.08.117s-5.974-.022-8.082-.117c-1.95-.09-3.008-.415-3.713-.69a6.196 6.196 0 01-2.3-1.495 6.2 6.2 0 01-1.5-2.3c-.272-.703-.6-1.762-.687-3.712-.095-2.108-.115-2.74-.115-8.083 0-5.34.02-5.97.115-8.077.09-1.95.415-3.01.69-3.716.362-.932.797-1.6 1.497-2.3.7-.7 1.365-1.132 2.3-1.495.705-.274 1.763-.6 3.713-.69 1.845-.085 2.56-.11 6.287-.112v.005zm12.47 3.32a2.4 2.4 0 100 4.799 2.4 2.4 0 000-4.799zM20.003 9.73a10.272 10.272 0 10-.321 20.542 10.272 10.272 0 00.32-20.542zm0 3.602a6.668 6.668 0 110 13.336 6.668 6.668 0 010-13.335z" fill="#fff"/></svg>
